app/img/icons/ic--vat.svg

<svg xmlns="http://www.w3.org/2000/svg" preserveAspectRatio="xMidYMid" width="45.06" height="24.937" viewBox="0 0 45.06 24.937"><defs><style>.cls-1{fill:#fff;fill-rule:evenodd}</style></defs><path d="M17.406 8.139c0-.5.48-.896 1.045-.896.567 0 1.021.396 1.021.896v1.105h2.017V8.139c0-.5.479-.896 1.045-.896s1.034.396 1.034.896v1.105h2.016V8.139c0-.5.456-.896 1.021-.896.591 0 1.07.396 1.07.896v1.105h15.642c.947 0 1.747.667 1.747 1.469 0 .813-.8 1.459-1.747 1.459h-1.771v.271c0 2.929-1.438 5.596-3.726 7.545-.16.157-.369.302-.529.448l2.005 3.21c.271.418.086.959-.405 1.168-.529.229-1.156.083-1.44-.354l-1.856-2.961c-1.932 1.032-4.231 1.627-6.665 1.627H16.139c-2.041 0-3.984-.418-5.681-1.157l-.75 2.313c-.135.458-.701.751-1.267.635-.541-.145-.885-.625-.738-1.104l.898-2.814c-.48-.312-.934-.646-1.365-1.011-2.287-1.927-3.714-4.595-3.714-7.545v-.271H1.739c-.947 0-1.734-.646-1.734-1.459 0-.802.787-1.469 1.734-1.469h1.783V4.157c0-1.135.553-2.167 1.439-2.928C5.847.479 7.076.01 8.441.01c1.316 0 2.546.469 3.432 1.219.885.761 1.45 1.793 1.45 2.928 0 .501-.454.877-1.045.877-.565 0-1.045-.376-1.045-.877 0-.656-.32-1.25-.8-1.688h-.024c-.492-.437-1.217-.698-1.968-.698-.799 0-1.5.261-2.005.698h-.011C5.92 2.907 5.6 3.501 5.6 4.157v5.087h11.806V8.139zm22.05 4.033H5.6v.271c0 2.449 1.181 4.7 3.112 6.305.48.417 1.02.792 1.587 1.126l.134.052c1.636.906 3.616 1.448 5.706 1.448H28.93c2.89 0 5.533-.999 7.44-2.626 1.905-1.605 3.086-3.835 3.086-6.305v-.271z" class="cls-1"/></svg>

<svg xmlns="http://www.w3.org/2000/svg" xmlns:xlink="http://www.w3.org/1999/xlink" preserveAspectRatio="xMidYMid" width="45.06" height="24.937" viewBox="0 0 45.06 24.937">
  <defs>
    <style>
      .cls-1 {
        fill: #fff;
        fill-rule: evenodd;
      }
    </style>
  </defs>
  <path d="M17.406,8.139 C17.406,7.639 17.886,7.243 18.451,7.243 C19.018,7.243 19.472,7.639 19.472,8.139 L19.472,9.244 L21.489,9.244 L21.489,8.139 C21.489,7.639 21.968,7.243 22.534,7.243 C23.100,7.243 23.568,7.639 23.568,8.139 L23.568,9.244 L25.584,9.244 L25.584,8.139 C25.584,7.639 26.040,7.243 26.605,7.243 C27.196,7.243 27.675,7.639 27.675,8.139 L27.675,9.244 L43.317,9.244 C44.264,9.244 45.064,9.911 45.064,10.713 C45.064,11.526 44.264,12.172 43.317,12.172 L41.546,12.172 L41.546,12.443 C41.546,15.372 40.108,18.039 37.820,19.988 L37.820,19.988 C37.660,20.145 37.451,20.290 37.291,20.436 L39.296,23.646 C39.567,24.064 39.382,24.605 38.891,24.814 C38.362,25.043 37.735,24.897 37.451,24.460 L35.595,21.499 C33.663,22.531 31.364,23.126 28.930,23.126 L16.139,23.126 C14.098,23.126 12.155,22.708 10.458,21.969 L9.708,24.282 C9.573,24.740 9.007,25.033 8.441,24.917 C7.900,24.772 7.556,24.292 7.703,23.813 L8.601,20.999 C8.121,20.687 7.667,20.353 7.236,19.988 C4.949,18.061 3.522,15.393 3.522,12.443 L3.522,12.172 L1.739,12.172 C0.792,12.172 0.005,11.526 0.005,10.713 C0.005,9.911 0.792,9.244 1.739,9.244 L3.522,9.244 L3.522,4.157 C3.522,3.022 4.075,1.990 4.961,1.229 L4.961,1.229 C5.847,0.479 7.076,0.010 8.441,0.010 C9.757,0.010 10.987,0.479 11.873,1.229 L11.873,1.229 C12.758,1.990 13.323,3.022 13.323,4.157 C13.323,4.658 12.869,5.034 12.278,5.034 C11.713,5.034 11.233,4.658 11.233,4.157 C11.233,3.501 10.913,2.907 10.433,2.469 L10.409,2.469 C9.917,2.032 9.192,1.771 8.441,1.771 C7.642,1.771 6.941,2.032 6.436,2.469 L6.425,2.469 C5.920,2.907 5.600,3.501 5.600,4.157 L5.600,9.244 L17.406,9.244 L17.406,8.139 L17.406,8.139 ZM39.456,12.172 L39.456,12.172 L5.600,12.172 L5.600,12.443 C5.600,14.892 6.781,17.143 8.712,18.748 L8.712,18.748 C9.192,19.165 9.732,19.540 10.299,19.874 L10.433,19.926 C12.069,20.832 14.049,21.374 16.139,21.374 L28.930,21.374 C31.820,21.374 34.463,20.375 36.370,18.748 L36.370,18.748 L36.370,18.748 C38.275,17.143 39.456,14.913 39.456,12.443 L39.456,12.172 L39.456,12.172 Z" class="cls-1"/>
</svg>
